X:90
T:Farrell O'Gara
C:Trad.
D:"Cooley", track 13
M:4/4
R:reel
K:D
DB,|:A,D {F}D{C}D A,DFA|BFAF EEFA|dB(3cBA BF AF|(3GFGEG FDCB,|
A,D {F}D{C}D A,DFA|BFAF (3EGEFA|dB(3cBA BF AF|1 (3GFGEG FDDB,:|2 GFEG FDfe||
|:fd {f}d{c}d fdad|fd {f}d{c}d edBc|dB{d}BA Bcde|fdaf ef{a}ge|
[1 fd {f}d{c}d Ad {f}d{c}d|ad {f}d{c}d edBc|dB{d}BA {d}BAGF|GFEG FDfe:|
[2 fagf edBA|dfed BAFA|A,D {F}D{C}D DEFA|BFAF D2 B,D||
